; generated by PrusaSlicer 2.5.0+win64 on 2023-05-25 at 09:30:06 UTC


;
;
; 

; external perimeters extrusion width = 0.60mm
; perimeters extrusion width = 0.50mm
; infill extrusion width = 0.50mm
; solid infill extrusion width = 0.50mm
; top infill extrusion width = 0.45mm
; first layer extrusion width = 0.42mm

; external perimeters extrusion width = 0.60mm
; perimeters extrusion width = 0.50mm
; infill extrusion width = 0.50mm
; solid infill extrusion width = 0.50mm
; top infill extrusion width = 0.45mm
; first layer extrusion width = 0.42mm

M73 P0 R84
M73 Q0 S85
M201 X1000 Y1000 Z200 E5000 ; sets maximum accelerations, mm/sec^2
M203 X200 Y200 Z12 E120 ; sets maximum feedrates, mm / sec
M204 P1250 R1250 T1250 ; sets acceleration (P, T) and retract acceleration (R), mm/sec^2
M205 X8.00 Y8.00 Z0.40 E4.50 ; sets the jerk limits, mm/sec
M205 S0 T0 ; sets the minimum extruding and travel feed rate, mm/sec
M107
;TYPE:Custom
M862.3 P "MK3MMU2" ; printer model check
M862.1 P0.4 ; nozzle diameter check
M115 U3.11.0 ; tell printer latest fw version
G90 ; use absolute coordinates
M83 ; extruder relative mode
M104 S215 ; set extruder temp
M140 S60 ; set bed temp
Tx
M190 S60 ; wait for bed temp
M109 S215 ; wait for extruder temp
G28 W ; home all without mesh bed level
G80 ; mesh bed leveling

;go outside print area
G1 Y-3 F1000
G1 Z0.4 F1000
; select extruder
Tc
; purge line
G1 X55 E8 F2000
G1 Z0.3 F1000
G92 E0
G1 X240 E25 F2200
G1 Y-2 F1000
G1 X55 E25 F1400
G1 Z0.2 F1000
M73 Q0 S84
G1 X5 E4 F1000

M221 S95
G92 E0

; Don't change E values below. Excessive value can damage the printer.

M907 E538 ; set extruder motor current
G21 ; set units to millimeters
G90 ; use absolute coordinates
M83 ; use relative distances for extrusion
M900 K0.05 ; Filament gcode LA 1.5
M900 K30 ; Filament gcode LA 1.0
M107
;LAYER_CHANGE
;Z:0.2
;HEIGHT:0.2
;BEFORE_LAYER_CHANGE
G92 E0.0
;0.2


G1 E-.8 F2100
G1 Z.4 F720
;AFTER_LAYER_CHANGE
;0.2
G1 X56.054 Y73.117 F10800
G1 Z.2 F720
G1 E.8 F2100
M204 S800
;TYPE:Skirt/Brim
;WIDTH:0.42
G1 F1200
G1 X57.055 Y72.35 E.03955
G1 X60.017 Y70.37 E.11171
G1 X61.404 Y69.584 E.04998
G1 X64.119 Y68.171 E.09596
G1 X68.233 Y66.506 E.13917
G1 X72.368 Y65.313 E.13492
G1 X77.082 Y64.488 E.15006
G1 X80.727 Y64.213 E.11462
G1 X167.117 Y61.068 E2.71047
G1 X170.349 Y61.131 E.10137
G1 X171.96 Y61.25 E.05066
G1 X175.6 Y61.749 E.11518
G1 X179.851 Y62.758 E.13701
G1 X183.938 Y64.183 E.13568
G1 X187.527 Y65.847 E.12407
G1 X190.816 Y67.761 E.11932
G1 X192.161 Y68.654 E.0506
G1 X195.099 Y70.887 E.1157
G1 X198.278 Y73.827 E.13579
G1 X201.193 Y77.142 E.1384
G1 X203.461 Y80.303 E.12198
G1 X205.387 Y83.59 E.11945
G1 X206.121 Y85.024 E.05049
G1 X207.607 Y88.477 E.11786
G1 X208.947 Y92.682 E.1384
G1 X209.83 Y96.919 E.13569
G1 X210.242 Y100.727 E.12011
G1 X210.332 Y103.492 E.08672
G1 X210.242 Y106.14 E.08307
G1 X209.83 Y109.942 E.11992
G1 X208.925 Y114.263 E.1384
G1 X207.607 Y118.385 E.13568
G1 X206.117 Y121.846 E.11815
G1 X205.378 Y123.287 E.05077
G1 X203.461 Y126.558 E.11888
G1 X201.193 Y129.719 E.12198
G1 X198.339 Y132.971 E.13568
G1 X195.181 Y135.902 E.13507
G1 X193.916 Y136.89 E.05035
G1 X191.569 Y138.619 E.09139
G1 X187.857 Y140.844 E.13569
G1 X183.938 Y142.678 E.13569
G1 X179.768 Y144.128 E.1384
G1 X175.556 Y145.121 E.13569
G1 X171.178 Y145.685 E.1384
G1 X84.463 Y148.869 E2.72072
G1 X80.94 Y148.932 E.11047
M73 P0 R83
G1 X77.082 Y148.651 E.1213
G1 X72.283 Y147.807 E.15278
G1 X68.128 Y146.596 E.13568
G1 X64.801 Y145.271 E.11228
G1 X63.421 Y144.628 E.04775
G1 X60.221 Y142.895 E.11408
G1 X58.895 Y142.027 E.04971
G1 X56.561 Y140.428 E.0887
G1 X53.336 Y137.738 E.13167
G1 X50.411 Y134.764 E.1308
G1 X47.533 Y131.162 E.14457
G1 X45.129 Y127.38 E.14049
G1 X43.226 Y123.568 E.13359
G1 X41.668 Y119.438 E.13841
G1 X40.566 Y115.253 E.13569
G1 X39.898 Y110.978 E.13568
G1 X39.669 Y106.483 E.14112
G1 X39.888 Y102.248 E.13296
G1 X40.566 Y97.886 E.1384
G1 X41.547 Y94.098 E.12267
G1 X43.192 Y89.65 E.14869
G1 X45.129 Y85.759 E.13631
G1 X47.483 Y82.048 E.13778
G1 X50.145 Y78.675 E.13472
G1 X52.966 Y75.746 E.12751
G1 X56.007 Y73.154 E.12527
M204 S1000
; printing object Wheel.STL id:0 copy 0
;WIPE_START
G1 F8640
G1 X57.055 Y72.35 E-.30512
G1 X58.693 Y71.255 E-.45488
;WIPE_END
G1 E-.04 F2100
G1 Z.6 F720
G1 X119.939 Y116.632 F10800
G1 Z.2 F720
G1 E.8 F2100
M204 S800
;TYPE:Perimeter
;WIDTH:0.419999
G1 F1200
G1 X118.732 Y120.41 E.12437
G1 X117.119 Y124.1 E.12626
G1 X115.128 Y127.618 E.12675
G1 X112.793 Y130.903 E.12636
G1 X110.069 Y133.994 E.12917
G1 X107.16 Y136.682 E.12422
G1 X103.935 Y139.102 E.12641
G1 X100.469 Y141.183 E.12675
G1 X96.818 Y142.892 E.12638
G1 X93.003 Y144.219 E.12668
G1 X89.076 Y145.146 E.12648
G1 X85.071 Y145.665 E.12664
G1 X81.03 Y145.768 E.12674
G1 X77.011 Y145.457 E.12638
G1 X73.036 Y144.733 E.12668
G1 X69.164 Y143.606 E.12646
G1 X65.508 Y142.123 E.12369
G1 X61.854 Y140.184 E.12972
G1 X58.51 Y137.934 E.12637
G1 X55.371 Y135.312 E.12823
G1 X52.593 Y132.457 E.12489
G1 X50.085 Y129.289 E.12668
G1 X47.916 Y125.879 E.12673
G1 X46.114 Y122.273 E.1264
G1 X44.688 Y118.49 E.12675
G1 X43.662 Y114.593 E.12638
G1 X43.04 Y110.601 E.12668
G1 X42.832 Y106.568 E.12661
G1 X43.04 Y102.538 E.12652
G1 X43.662 Y98.544 E.12674
G1 X44.689 Y94.646 E.12638
G1 X46.114 Y90.866 E.12668
G1 X47.917 Y87.258 E.12645
G1 X50.085 Y83.849 E.12668
G1 X52.594 Y80.68 E.12674
G1 X55.371 Y77.828 E.12482
G1 X58.51 Y75.205 E.12825
G1 X61.856 Y72.954 E.12644
G1 X65.422 Y71.055 E.12667
G1 X69.166 Y69.532 E.12673
G1 X73.036 Y68.406 E.12639
G1 X77.014 Y67.681 E.12676
G1 X81.01 Y67.371 E.12568
G1 X85.071 Y67.474 E.12737
G1 X89.078 Y67.993 E.12669
G1 X93.003 Y68.92 E.12643
M73 P1 R83
M73 Q1 S84
G1 X96.821 Y70.248 E.12675
G1 X100.471 Y71.957 E.12638
G1 X103.935 Y74.036 E.12668
G1 X107.162 Y76.458 E.12651
G1 X110.068 Y79.144 E.12407
G1 X112.794 Y82.238 E.12929
G1 X115.129 Y85.523 E.12637
G1 X117.119 Y89.039 E.12668
G1 X118.733 Y92.73 E.12629
G1 X119.963 Y96.583 E.12684
G1 X120.79 Y100.54 E.12674
G1 X121.202 Y104.504 E.12495
G1 X121.254 Y106.684 E.06839
G1 X121.202 Y108.635 E.06118
G1 X120.79 Y112.601 E.12503
G1 X119.957 Y116.575 E.1273
M204 S1000
G1 X120.298 Y116.747 F10800
M204 S800
;TYPE:External perimeter
G1 F1200
G1 X119.086 Y120.543 E.12497
G1 X117.457 Y124.269 E.12747
G1 X115.447 Y127.821 E.12797
G1 X113.089 Y131.137 E.12759
G1 X110.339 Y134.258 E.1304
G1 X107.401 Y136.972 E.12543
G1 X104.146 Y139.416 E.12763
G1 X100.647 Y141.516 E.12796
G1 X96.961 Y143.242 E.1276
G1 X93.108 Y144.582 E.1279
G1 X89.144 Y145.517 E.1277
G1 X85.1 Y146.041 E.12786
G1 X81.02 Y146.146 E.12796
G1 X76.963 Y145.832 E.1276
G1 X72.95 Y145.1 E.12789
G1 X69.04 Y143.962 E.12767
G1 X65.349 Y142.465 E.1249
G1 X61.659 Y140.508 E.13095
G1 X58.283 Y138.236 E.1276
G1 X55.115 Y135.588 E.12945
G1 X52.309 Y132.707 E.12611
G1 X49.777 Y129.508 E.1279
G1 X47.587 Y126.065 E.12795
G1 X45.768 Y122.424 E.12761
G1 X44.328 Y118.605 E.12797
G1 X43.292 Y114.67 E.12759
G1 X42.664 Y110.639 E.12789
G1 X42.455 Y106.568 E.12783
G1 X42.664 Y102.499 E.12773
G1 X43.293 Y98.467 E.12796
G1 X44.329 Y94.531 E.1276
G1 X45.768 Y90.715 E.1279
G1 X47.588 Y87.072 E.12767
G1 X49.777 Y83.631 E.1279
G1 X52.31 Y80.431 E.12796
G1 X55.114 Y77.551 E.12603
G1 X58.283 Y74.903 E.12947
G1 X61.661 Y72.63 E.12767
G1 X65.262 Y70.713 E.12789
G1 X69.042 Y69.176 E.12795
G1 X72.95 Y68.038 E.12761
G1 X76.965 Y67.307 E.12797
G1 X81 Y66.994 E.12689
G1 X85.1 Y67.098 E.12859
G1 X89.146 Y67.622 E.12792
G1 X93.108 Y68.557 E.12765
G1 X96.963 Y69.898 E.12797
G1 X100.648 Y71.623 E.1276
G1 X104.146 Y73.723 E.1279
G1 X107.404 Y76.168 E.12772
G1 X110.338 Y78.88 E.12529
G1 X113.09 Y82.003 E.13052
G1 X115.448 Y85.32 E.1276
G1 X117.457 Y88.87 E.1279
G1 X119.086 Y92.596 E.12751
G1 X120.328 Y96.487 E.12806
G1 X121.163 Y100.482 E.12796
G1 X121.578 Y104.479 E.12601
G1 X121.631 Y106.694 E.06948
G1 X121.578 Y108.659 E.06163
G1 X121.163 Y112.659 E.12609
G1 X120.317 Y116.689 E.12912
M204 S1000
G1 X119.912 Y116.851 F10800
;WIPE_START
G1 F8640
G1 X119.315 Y119.825 E-.76
;WIPE_END
G1 E-.04 F2100
G1 Z.6 F720
G1 X87.854 Y109.983 F10800
G1 Z.2 F720
G1 E.8 F2100
M204 S800
;TYPE:Perimeter
G1 F1200
G1 X87.921 Y109.847 E.00477
G1 X88.267 Y109.438 E.01679
G1 X88.712 Y109.044 E.01862
G1 X89.217 Y108.723 E.01878
G1 X89.767 Y108.486 E.01878
G1 X90.344 Y108.338 E.01867
G1 X90.935 Y108.284 E.01861
G1 X111.036 Y108.282 E.63025
G1 X111.585 Y108.325 E.01727
M73 Q1 S83
G1 X112.174 Y108.461 E.01896
G1 X112.734 Y108.69 E.01896
G1 X113.25 Y109.004 E.01896
G1 X113.709 Y109.397 E.01896
G1 X114.1 Y109.858 E.01896
G1 X114.413 Y110.376 E.01896
G1 X114.64 Y110.936 E.01896
G1 X114.774 Y111.526 E.01896
G1 X114.813 Y112.155 E.01978
G1 X114.742 Y112.804 E.02046
G1 X113.858 Y116.362 E.11495
G1 X112.564 Y119.857 E.11685
G1 X110.887 Y123.185 E.11685
G1 X108.849 Y126.305 E.11685
G1 X106.475 Y129.178 E.11685
G1 X103.792 Y131.769 E.11693
G1 X103.32 Y132.121 E.01845
G1 X102.785 Y132.402 E.01896
G1 X102.212 Y132.594 E.01896
G1 X101.615 Y132.692 E.01896
G1 X101.011 Y132.694 E.01896
G1 X100.413 Y132.6 E.01896
G1 X99.839 Y132.413 E.01896
G1 X99.301 Y132.136 E.01896
G1 X98.815 Y131.777 E.01896
G1 X98.392 Y131.345 E.01896
G1 X98.023 Y130.82 E.02009
G1 X87.995 Y113.451 E.62884
G1 X87.759 Y112.959 E.01714
G1 X87.59 Y112.41 E.01801
G1 X87.502 Y111.806 E.01911
G1 X87.511 Y111.195 E.01917
G1 X87.616 Y110.61 E.01865
G1 X87.828 Y110.037 E.01913
M204 S1000
G1 X88.185 Y110.137 F10800
M204 S800
;TYPE:External perimeter
G1 F1200
G1 X88.555 Y109.681 E.01841
G1 X88.958 Y109.33 E.01678
G1 X89.416 Y109.044 E.01691
G1 X89.912 Y108.834 E.01691
G1 X90.433 Y108.705 E.01682
G1 X90.965 Y108.66 E.01673
G1 X111.036 Y108.659 E.62931
G1 X111.555 Y108.7 E.01633
G1 X112.084 Y108.827 E.01707
G1 X112.587 Y109.037 E.01707
G1 X113.05 Y109.324 E.01707
G1 X113.461 Y109.681 E.01707
G1 X113.81 Y110.099 E.01707
G1 X114.088 Y110.567 E.01707
G1 X114.288 Y111.073 E.01707
G1 X114.405 Y111.605 E.01707
G1 X114.436 Y112.157 E.01735
G1 X114.376 Y112.713 E.01752
G1 X113.492 Y116.271 E.11495
G1 X112.21 Y119.726 E.11553
G1 X110.55 Y123.015 E.11553
G1 X108.533 Y126.099 E.11553
G1 X106.184 Y128.938 E.11553
G1 X103.531 Y131.498 E.11561
G1 X103.098 Y131.816 E.01685
G1 X102.614 Y132.066 E.01707
G1 X102.096 Y132.235 E.01707
G1 X101.558 Y132.319 E.01707
G1 X101.014 Y132.317 E.01707
G1 X100.476 Y132.229 E.01707
G1 X99.96 Y132.056 E.01707
G1 X99.478 Y131.803 E.01707
G1 X99.042 Y131.476 E.01707
G1 X98.664 Y131.084 E.01707
G1 X98.35 Y130.632 E.01727
G1 X88.322 Y113.263 E.62884
G1 X88.099 Y112.796 E.0162
G1 X87.952 Y112.303 E.01614
G1 X87.876 Y111.756 E.01732
G1 X87.888 Y111.207 E.01724
G1 X87.986 Y110.68 E.01679
G1 X88.16 Y110.191 E.01628
M204 S1000
G1 X87.992 Y109.786 F10800
;WIPE_START
G1 F8640
G1 X88.555 Y109.681 E-.14886
G1 X88.958 Y109.33 E-.12356
G1 X89.416 Y109.044 E-.12455
G1 X89.912 Y108.834 E-.12455
G1 X90.433 Y108.705 E-.12386
G1 X90.928 Y108.663 E-.11463
;WIPE_END
G1 E-.04 F2100
G1 Z.6 F720
G1 X87.879 Y103.21 F10800
G1 Z.2 F720
G1 E.8 F2100
M204 S800
;TYPE:Perimeter
G1 F1200
G1 X87.78 Y103.005 E.00711
G1 X87.616 Y102.529 E.01579
G1 X87.521 Y102.033 E.01586
G1 X87.499 Y101.452 E.01823
G1 X87.567 Y100.834 E.01949
G1 X87.726 Y100.266 E.01848
G1 X87.975 Y99.727 E.01861
G1 X98.023 Y82.318 E.63025
G1 X98.335 Y81.864 E.01727
G1 X98.747 Y81.422 E.01896
G1 X99.225 Y81.052 E.01896
G1 X99.756 Y80.762 E.01896
G1 X100.326 Y80.561 E.01896
G1 X100.921 Y80.452 E.01896
G1 X101.497 Y80.44 E.01808
G1 X102.119 Y80.524 E.01968
G1 X102.701 Y80.703 E.0191
G1 X103.243 Y80.971 E.01896
G1 X103.792 Y81.37 E.02127
G1 X106.432 Y83.914 E.11495
G1 X108.811 Y86.783 E.11685
G1 X110.855 Y89.899 E.11685
G1 X112.538 Y93.224 E.11685
G1 X113.839 Y96.716 E.11685
G1 X114.742 Y100.335 E.11693
G1 X114.81 Y100.919 E.01845
G1 X114.786 Y101.524 E.01896
G1 X114.666 Y102.116 E.01896
G1 X114.453 Y102.682 E.01896
G1 X114.152 Y103.207 E.01896
G1 X113.772 Y103.677 E.01896
G1 X113.322 Y104.081 E.01896
G1 X112.814 Y104.408 E.01896
G1 X112.26 Y104.649 E.01896
G1 X111.674 Y104.8 E.01896
G1 X111.036 Y104.856 E.02009
G1 X90.98 Y104.856 E.62884
G1 X90.435 Y104.815 E.01714
G1 X89.875 Y104.687 E.01801
G1 X89.3 Y104.458 E.01939
G1 X88.784 Y104.148 E.0189
G1 X88.312 Y103.746 E.01941
G1 X87.905 Y103.264 E.01981
M204 S1000
G1 X88.107 Y102.782 F10800
M204 S800
;TYPE:External perimeter
G1 F1200
G1 X87.994 Y102.487 E.0099
G1 X87.891 Y101.962 E.01678
G1 X87.876 Y101.442 E.0163
G1 X87.94 Y100.882 E.01767
G1 X88.088 Y100.372 E.01665
G1 X88.315 Y99.889 E.01673
G1 X98.35 Y82.507 E.62931
G1 X98.645 Y82.078 E.01633
G1 X99.02 Y81.683 E.01707
G1 X99.453 Y81.352 E.01707
G1 X99.932 Y81.095 E.01707
G1 X100.447 Y80.917 E.01707
G1 X100.984 Y80.824 E.01707
G1 X101.5 Y80.817 E.01619
G1 X102.065 Y80.897 E.01789
G1 X102.586 Y81.062 E.01712
G1 X103.072 Y81.307 E.01707
G1 X103.511 Y81.625 E.01699
G1 X106.17 Y84.186 E.11575
G1 X108.533 Y87.04 E.11619
G1 X110.55 Y90.124 E.11553
G1 X112.21 Y93.413 E.11553
G1 X113.492 Y96.868 E.11553
G1 X114.376 Y100.426 E.11495
G1 X114.435 Y100.96 E.01685
G1 X114.409 Y101.504 E.01707
G1 X114.297 Y102.037 E.01707
G1 X114.101 Y102.545 E.01707
G1 X113.827 Y103.015 E.01707
G1 X113.482 Y103.436 E.01707
G1 X113.074 Y103.797 E.01707
G1 X112.614 Y104.088 E.01707
G1 X112.113 Y104.302 E.01707
G1 X111.585 Y104.434 E.01707
G1 X111.051 Y104.479 E.01679
G1 X90.98 Y104.479 E.62932
G1 X90.464 Y104.439 E.0162
G1 X89.964 Y104.32 E.01614
G1 X89.443 Y104.109 E.0176
G1 X88.982 Y103.827 E.01696
G1 X88.56 Y103.462 E.01748
G1 X88.207 Y103.046 E.01712
G1 X88.128 Y102.838 E.00697
M204 S1000
G1 X87.792 Y102.755 F10800
;WIPE_START
G1 F8640
G1 X87.994 Y102.487 E-.08676
G1 X87.891 Y101.962 E-.12358
G1 X87.876 Y101.442 E-.12003
G1 X87.94 Y100.882 E-.13012
G1 X88.088 Y100.372 E-.12262
G1 X88.315 Y99.889 E-.12322
G1 X88.431 Y99.688 E-.05366
;WIPE_END
G1 E-.04 F2100
G1 Z.6 F720
G1 X79.578 Y109.019 F10800
G1 Z.2 F720
G1 E.8 F2100
M204 S800
;TYPE:Perimeter
G1 F1200
G1 X79.427 Y108.865 E.00675
G1 X79.116 Y108.461 E.01599
G1 X78.875 Y108.023 E.01569
G1 X78.68 Y107.483 E.01798
G1 X78.575 Y106.909 E.01831
G1 X78.567 Y106.325 E.01831
G1 X78.656 Y105.747 E.01831
G1 X78.841 Y105.193 E.01831
G1 X79.116 Y104.678 E.01831
G1 X79.426 Y104.274 E.01598
G1 X79.689 Y104.008 E.01172
G1 X79.971 Y103.932 E.00914
G1 X84.118 Y103.932 E.13003
G1 X84.4 Y104.008 E.00916
G1 X84.662 Y104.274 E.01171
G1 X84.973 Y104.678 E.01598
G1 X85.247 Y105.193 E.01831
G1 X85.412 Y105.666 E.0157
G1 X85.514 Y106.23 E.01797
G1 X85.522 Y106.814 E.01831
G1 X85.432 Y107.391 E.01831
G1 X85.247 Y107.946 E.01831
G1 X84.973 Y108.461 E.01831
G1 X84.662 Y108.865 E.01598
G1 X84.401 Y109.13 E.01165
G1 X84.118 Y109.206 E.00921
G1 X79.971 Y109.206 E.13003
G1 X79.687 Y109.13 E.00921
G1 X79.62 Y109.062 E.00302
M204 S1000
G1 X79.804 Y108.735 F10800
M204 S800
;TYPE:External perimeter
G1 F1200
G1 X79.464 Y108.305 E.01718
G1 X79.21 Y107.85 E.01634
G1 X79.036 Y107.359 E.01634
G1 X78.946 Y106.846 E.01634
G1 X78.944 Y106.325 E.01634
G1 X79.028 Y105.81 E.01634
G1 X79.197 Y105.317 E.01634
G1 X79.446 Y104.86 E.01634
G1 X79.823 Y104.381 E.01911
G1 X79.971 Y104.309 E.00514
G1 X84.118 Y104.309 E.13003
G1 X84.265 Y104.381 E.00514
G1 X84.625 Y104.833 E.01812
G1 X84.872 Y105.278 E.01594
G1 X85.052 Y105.78 E.01673
G1 X85.142 Y106.293 E.01634
G1 X85.145 Y106.814 E.01634
G1 X85.06 Y107.328 E.01634
G1 X84.891 Y107.821 E.01634
G1 X84.642 Y108.279 E.01634
G1 X84.265 Y108.758 E.01911
G1 X84.118 Y108.829 E.00514
G1 X79.971 Y108.829 E.13003
G1 X79.85 Y108.771 E.0042
M204 S1000
G1 X79.442 Y108.905 F10800
;WIPE_START
G1 F8640
G1 X79.464 Y108.305 E-.13974
G1 X79.21 Y107.85 E-.12033
G1 X79.036 Y107.359 E-.12032
G1 X78.946 Y106.846 E-.12032
G1 X78.944 Y106.325 E-.12033
G1 X79.028 Y105.81 E-.12032
G1 X79.054 Y105.734 E-.01864
;WIPE_END
G1 E-.04 F2100
G1 Z.6 F720
G1 X76.203 Y109.92 F10800
G1 Z.2 F720
G1 E.8 F2100
M204 S800
;TYPE:Perimeter
G1 F1200
G1 X76.308 Y110.133 E.00745
G1 X76.472 Y110.61 E.01579
G1 X76.567 Y111.106 E.01585
G1 X76.593 Y111.702 E.01868
G1 X76.523 Y112.298 E.01882
G1 X76.363 Y112.873 E.01871
G1 X76.114 Y113.412 E.01861
G1 X66.065 Y130.82 E.63025
G1 X65.754 Y131.275 E.01727
G1 X65.341 Y131.717 E.01896
